X:1
T:Joy to the World
T:Joy to the World
T:Lowell Mason, 1836
T:Isaac Watts, 1719
T:Public Domain Courtesy of the Cyber Hymnal™
C:Lowell Mason, 1836
Z:Public Domain
Z:Courtesy of the Cyber Hymnal™
%%score ( 1 2 ) ( 3 4 )
L:1/8
Q:1/4=95
M:2/4
K:D
V:1 treble 
V:2 treble 
V:3 bass 
V:4 bass 
V:1
 [Fd]2 [Ac]>[GB] | [FA]3 [EG] | [DF]2 [CE]2 | D3 A | [GB]3 [GB] | [Ec]3 [Ec] | %6
w: 1.~Joy to the|world, the|Lord is|come! Let|earth re-|ceive her|
w: 2.~Joy to the|world, the|Sav- ior|reigns! Let|men their|songs em-|
w: 3.~No more let|sins and|sor- rows|grow, Nor|thorns in-|fest the|
w: 4.~He rules the|world with|truth and|grace, And|makes the|na- tions|
 !fermata![Fd]3 [Fd] | ([Fd][Ac]) ([GB][FA]) | ([FA]>[EG] [FA])[Fd] | ([Fd][Ac]) ([GB][FA]) | %10
w: king; Let|ev- * ery *|heart * * pre-|pare * Him *|
w: ploy; While|fields * and *|floods, * * rocks,|hills * and *|
w: ground; He|comes * to *|make * * His|bless- * ings *|
w: prove The|glo- * ries *|of * * His|right- * eous- *|
 ([FA]>[EG] [DF])[DF] | [DF][DF] [DF] ([DF]/[EG]/) | [FA]3 ([EG]/[DF]/) | %13
w: room, * * And|Heav’n and na- ture *|sing, And *|
w: plains * * Re-|peat the sound- ing *|joy, Re- *|
w: flow * * Far|as the curse is *|found, Far *|
w: ness, * * And|won- ders of His *|love, And *|
 [CE][CE] [CE] ([CE]/[DF]/) | [EG]3 ([DF]/[CE]/) | (D !fermata![Fd]2) [GB] | ([FA]>[EG] [DF])[EG] | %17
w: Heav’n and na- ture *|sing, And *|Heaven, * and|Heaven, * * and|
w: peat the sound- ing *|joy, Re- *|peat, * re-|peat, * * the|
w: as the curse is *|found, Far *|as, * far|as, * * the|
w: won- ders of His *|love, And *|won- * ders,|won- * * ders,|
 [DF]2 [CE]2 | D4 |] %19
w: na- ture|sing.|
w: sound- ing|joy.|
w: curse is|found.|
w: of His|love.|
V:2
 x4 | x4 | x4 | D3 A | x4 | x4 | x4 | x4 | x4 | x4 | x4 | x4 | x4 | x4 | x4 | x4 | x4 | x4 | D4 |] %19
V:3
 [D,D]2 [D,D]>[D,D] | [D,D]3 [G,,B,] | A,3 x | [D,F,]3 [F,D] | [G,D]3 [G,D] | A,3 A, | %6
 !fermata![D,A,]3 [D,A,] | [D,A,]2 [D,D]2 | (D2 A,)[D,A,] | [D,A,]2 [D,D]2 | (D2 A,) z | %11
 z2 z [D,A,] | ([D,A,][D,A,] [D,A,][D,A,]) | A,3- A,, | A,3 [A,,A,] | F, !fermata!A,2 [D,D] | %16
 [D,D]3 [G,,B,] | [A,,A,]2 (A,G,) | [D,F,]4 |] %19
V:4
 x4 | x4 | A,,2 A,,2 | x4 | x4 | A,3 A, | x4 | x4 | D,3 x | x4 | D,3 x | x4 | x4 | x4 | %14
 (A,,A,, A,,) x | D,3 x | x4 | x2 A,,2 | x4 |] %19

